assets/Person genie/Flat/person_genie_flat.svg

<svg width="32" height="32" viewBox="0 0 32 32" fill="none" xmlns="http://www.w3.org/2000/svg">
<path d="M16 17C14 17 11.9152 17.7552 11.9152 17.7552C11.3833 17.9449 10.8719 19.1706 10.3849 19.4289C9.94991 19.6596 9.53435 18.9163 9.14085 19.1966C6.61627 20.9949 5 23.7653 5 26.8759V30H9.1L11.025 29L12.9 30H19.1L21 29L22.9 30H27V26.8759C27 23.7391 25.3476 20.9434 22.7781 19.1452C22.3429 18.8406 21.8814 19.5646 21.3971 19.3204C20.9866 19.1135 20.5598 17.9294 20.1188 17.7701C20.1188 17.7701 18 17 16 17Z" fill="#46A4FB"/>
<path d="M10.6728 13.0445C10.7655 13.0217 10.8695 12.9961 11 12.9999L11.5 14.9999C11.5201 15.1648 11.4966 15.3814 11.4723 15.6048C11.4361 15.9371 11.3984 16.2847 11.5 16.4999C10.69 16.1799 10.25 15.2799 10.25 14.4099V12.9998C10.404 13.1107 10.5239 13.0812 10.6728 13.0445Z" fill="#321B41"/>
<path d="M20 16.5C20.252 16.1354 20.4409 15.2396 20.5197 14.8229L20.6614 13.3229C21.1112 13.3043 21.3242 13.2027 21.6335 13.0552C21.6708 13.0374 21.7094 13.019 21.75 13V13.9688C21.75 14.8542 21.5 16.5 20 16.5Z" fill="#321B41"/>
<path d="M11.9152 17.7552C11.9152 17.7552 12.3443 17.5998 13 17.4299V30H9V19.2987C9.86944 18.6582 10.8512 18.1347 11.9152 17.7552Z" fill="#F92F60"/>
<path d="M23 30H19V17.4333C19.6741 17.6085 20.1188 17.7701 20.1188 17.7701C21.1693 18.1496 22.1396 18.6699 23 19.3046V30Z" fill="#F92F60"/>
<path d="M12.75 12.125C12.75 13.0225 12.0225 13.75 11.125 13.75C10.2275 13.75 9.5 13.0225 9.5 12.125C9.5 11.2275 10.2275 10.5 11.125 10.5C12.0225 10.5 12.75 11.2275 12.75 12.125Z" fill="#26C9FC"/>
<path d="M22.5 12.125C22.5 13.0225 21.7725 13.75 20.875 13.75C19.9775 13.75 19.25 13.0225 19.25 12.125C19.25 11.2275 19.9775 10.5 20.875 10.5C21.7725 10.5 22.5 11.2275 22.5 12.125Z" fill="#26C9FC"/>
<path d="M13 30V16.2558C13.4909 16.1476 13.9955 16.0689 14.5 16V30H13Z" fill="#FCD53F"/>
<path d="M19 30V16.26C18.5091 16.15 18.0045 16.07 17.5 16V30H19Z" fill="#FCD53F"/>
<path d="M17.1027 4.75H14.8736C12.371 4.75 10.4864 6.86127 10.7802 9.48499L11.1551 15.2961C11.4185 17.2742 13.0802 18.75 15.056 18.75H16.0084H16.9608C18.9265 18.75 20.5983 17.2742 20.8617 15.2961L21.2164 9.48499C21.5305 6.97401 19.6053 4.75 17.1027 4.75Z" fill="#26C9FC"/>
<path d="M12.3059 10.1401C12.3559 10.2101 12.4359 10.2401 12.5259 10.2401C12.5859 10.2401 12.6359 10.2301 12.6859 10.1801C12.6859 10.1801 12.6925 10.1765 12.7028 10.1701C12.8062 10.1052 13.3734 9.74908 14.1559 9.84007C14.3059 9.86007 14.4459 9.75007 14.4559 9.60007C14.4759 9.45007 14.3659 9.32007 14.2159 9.30007C13.1659 9.17484 12.4406 9.68996 12.3621 9.74576C12.3591 9.74788 12.3559 9.75007 12.3559 9.75007C12.2359 9.85007 12.2159 10.0201 12.3059 10.1401Z" fill="#321B41"/>
<path d="M19.216 10.1801C19.266 10.2201 19.326 10.2401 19.386 10.2401C19.466 10.2401 19.546 10.2101 19.606 10.1301C19.696 10.0101 19.676 9.84007 19.556 9.75007C19.5528 9.74848 19.5452 9.74348 19.5333 9.73569C19.3961 9.64541 18.6893 9.18041 17.686 9.30007C17.536 9.31007 17.426 9.45007 17.446 9.60007C17.456 9.75007 17.596 9.86007 17.746 9.84007C18.606 9.73007 19.206 10.1701 19.216 10.1801Z" fill="#321B41"/>
<path d="M12.2569 11.9601C12.4169 11.3501 12.9669 10.9001 13.6169 10.9001C14.2969 10.9001 14.8669 11.3901 14.9969 12.0301C15.0269 12.1701 14.9069 12.3001 14.7669 12.3001H12.5369C12.3569 12.3001 12.2169 12.1301 12.2569 11.9601Z" fill="white"/>
<path d="M19.7669 11.9601C19.6069 11.3501 19.0569 10.9001 18.4069 10.9001C17.7269 10.9001 17.1669 11.3901 17.0369 12.0301C17.0069 12.1701 17.1269 12.3001 17.2669 12.3001H19.4969C19.6769 12.3001 19.8069 12.1301 19.7669 11.9601Z" fill="white"/>
<path d="M12.9368 12.0599C12.9368 11.5699 13.3368 11.1699 13.8268 11.1699C14.3168 11.1699 14.7268 11.5699 14.7168 12.0599C14.7168 12.1499 14.7068 12.2199 14.6868 12.2999H12.9668C12.9468 12.2199 12.9368 12.1399 12.9368 12.0599Z" fill="#7D4533"/>
<path d="M19.0968 12.0599C19.0968 11.5699 18.6968 11.1699 18.2068 11.1699C17.7068 11.1699 17.3068 11.5699 17.3168 12.0599C17.3168 12.1499 17.3268 12.2199 17.3468 12.2999H19.0668C19.0868 12.2199 19.0968 12.1399 19.0968 12.0599Z" fill="#7D4533"/>
<path d="M13.8267 11.55C14.1067 11.55 14.3367 11.78 14.3367 12.06C14.3367 12.15 14.3167 12.23 14.2767 12.3H13.3767C13.3367 12.23 13.3167 12.15 13.3167 12.06C13.3167 11.78 13.5467 11.55 13.8267 11.55Z" fill="black"/>
<path d="M18.2068 11.55C17.9268 11.55 17.6968 11.78 17.6968 12.06C17.6968 12.15 17.7168 12.23 17.7568 12.3H18.6568C18.6968 12.23 18.7168 12.15 18.7168 12.06C18.7168 11.78 18.4868 11.55 18.2068 11.55Z" fill="black"/>
<path d="M13.6767 11.71C13.6767 11.7984 13.6051 11.87 13.5167 11.87C13.4283 11.87 13.3567 11.7984 13.3567 11.71C13.3567 11.6217 13.4283 11.55 13.5167 11.55C13.6051 11.55 13.6767 11.6217 13.6767 11.71Z" fill="white"/>
<path d="M18.0868 11.71C18.0868 11.7984 18.0152 11.87 17.9268 11.87C17.8385 11.87 17.7668 11.7984 17.7668 11.71C17.7668 11.6217 17.8385 11.55 17.9268 11.55C18.0152 11.55 18.0868 11.6217 18.0868 11.71Z" fill="white"/>
<path d="M15.5817 12.002L15.0277 13.7432C14.9082 14.0977 15.1907 14.4626 15.5817 14.4626H16.4183C16.8093 14.4626 17.0918 14.0977 16.9723 13.7432L16.4074 12.002C16.277 11.6162 15.7121 11.6162 15.5817 12.002Z" fill="#00A6ED"/>
<path d="M14.495 15.0214C14.3498 14.9414 14.1838 15.1114 14.2771 15.2414C14.6403 15.7814 15.2732 16.1414 15.9995 16.1414C16.7258 16.1414 17.3587 15.7814 17.7218 15.2414C17.8152 15.1014 17.6596 14.9414 17.5039 15.0214C17.0682 15.2414 14.9308 15.2414 14.495 15.0214Z" fill="#990839"/>
<path d="M9.78429 6.79933C9.51742 5.0639 10.8419 3.5 12.5815 3.5H19.4114C21.151 3.5 22.4755 5.0639 22.2086 6.79933L21.8034 9.42265C21.7441 9.84641 21.4278 10.1693 21.0226 10.25L21.0324 10.0785V9.77578C21.0226 9.61435 21.0127 9.463 20.983 9.31166C20.8249 8.67601 20.2516 8.21188 19.5696 8.21188H12.4135C11.7414 8.21188 11.1681 8.67601 11 9.31166C10.9803 9.463 10.9605 9.61435 10.9605 9.77578V10.0785L10.9704 10.25C10.921 10.2399 10.8728 10.226 10.8262 10.2087C10.4998 10.087 10.2501 9.79344 10.1895 9.42265L9.78429 6.79933Z" fill="#F92F60"/>
<path d="M17.5435 3.94386C17.4249 3.89341 17.2964 3.94386 17.2272 4.04476L17.224 4.04925C17.1707 4.12497 16.4747 5.11422 14.4399 4.82167C14.1731 4.78131 13.9061 4.74094 13.6492 4.70059L13.6115 4.69428C12.4769 4.50452 11.3156 4.3103 10.338 4.59969C10.1601 4.83176 10.0217 5.09409 9.92285 5.3766C10.8473 4.77425 12.124 4.981 13.5485 5.21167L13.5701 5.21516C13.6845 5.23313 13.8028 5.25308 13.9223 5.27326C14.0715 5.29843 14.2226 5.32393 14.3707 5.34633C15.5963 5.52794 16.4068 5.28579 16.9307 4.99319C16.4563 6.04252 15.4975 6.62772 13.1648 6.62772C12.2654 6.62772 11.0101 6.79924 10.1403 7.6266L9.94262 7.82839L10.0612 8.57503C10.2886 8.12099 11.0299 7.15238 13.1648 7.15238C14.6771 7.15238 15.715 6.92032 16.4365 6.40575C17.0888 5.95171 17.4842 5.28579 17.7115 4.25664C17.7214 4.11539 17.6621 3.99431 17.5435 3.94386Z" fill="#CA0B4A"/>
<path d="M22.0109 8.13112C21.2103 7.16251 20.0143 6.5874 18.7294 6.5874C18.591 6.5874 18.4724 6.70848 18.4724 6.84973C18.4724 6.99099 18.591 7.11207 18.7294 7.11207C20.0242 7.11207 21.2103 7.78808 21.9022 8.86767L22.0109 8.13112Z" fill="#CA0B4A"/>
<path d="M19.1347 5.1648C18.9963 5.1648 18.8777 5.04372 18.8777 4.90247C18.8777 4.75112 18.9864 4.64014 19.1446 4.64014C20.2417 4.64014 21.3191 5.02354 22.179 5.70964C22.2284 5.96189 22.2581 6.21413 22.2482 6.47646C21.4278 5.63902 20.301 5.1648 19.1347 5.1648Z" fill="#CA0B4A"/>
<path d="M16 7.5C16.8284 7.5 17.5 6.82843 17.5 6C17.5 5.17157 16.8284 4.5 16 4.5C15.1716 4.5 14.5 5.17157 14.5 6C14.5 6.82843 15.1716 7.5 16 7.5Z" fill="#FCD53F"/>
<path d="M16 6.75C16.4142 6.75 16.75 6.41421 16.75 6C16.75 5.58579 16.4142 5.25 16 5.25C15.5858 5.25 15.25 5.58579 15.25 6C15.25 6.41421 15.5858 6.75 16 6.75Z" fill="#F8312F"/>
</svg>

<svg xmlns="http://www.w3.org/2000/svg" width="32" height="32" fill="none"><path fill="#46A4FB" d="M16 17c-2 0-4.085.755-4.085.755-.532.19-1.043 1.416-1.53 1.674-.435.23-.85-.513-1.244-.232C6.616 20.995 5 23.765 5 26.876V30h4.1l1.925-1 1.875 1h6.2l1.9-1 1.9 1H27v-3.124c0-3.137-1.652-5.933-4.222-7.73-.435-.305-.897.419-1.38.174-.411-.207-.838-1.39-1.28-1.55 0 0-2.118-.77-4.118-.77Z"/><path fill="#321B41" d="M10.673 13.044c.092-.022.197-.048.327-.044l.5 2c.02.165-.003.381-.028.605-.036.332-.074.68.028.895-.81-.32-1.25-1.22-1.25-2.09V13c.154.11.274.081.423.044ZM20 16.5c.252-.365.44-1.26.52-1.677l.141-1.5c.45-.019.663-.12.973-.268L21.75 13v.969c0 .885-.25 2.531-1.75 2.531Z"/><path fill="#F92F60" d="M11.915 17.755s.43-.155 1.085-.325V30H9V19.299c.87-.64 1.851-1.164 2.915-1.544ZM23 30h-4V17.433c.674.175 1.119.337 1.119.337 1.05.38 2.02.9 2.881 1.535V30Z"/><path fill="#26C9FC" d="M12.75 12.125a1.625 1.625 0 1 1-3.25 0 1.625 1.625 0 0 1 3.25 0ZM22.5 12.125a1.625 1.625 0 1 1-3.25 0 1.625 1.625 0 0 1 3.25 0Z"/><path fill="#FCD53F" d="M13 30V16.256c.49-.108.995-.187 1.5-.256v14H13ZM19 30V16.26c-.49-.11-.995-.19-1.5-.26v14H19Z"/><path fill="#26C9FC" d="M17.103 4.75h-2.23c-2.502 0-4.387 2.111-4.093 4.735l.375 5.811c.264 1.978 1.925 3.454 3.901 3.454H16.961c1.966 0 3.637-1.476 3.9-3.454l.355-5.811c.314-2.511-1.61-4.735-4.113-4.735Z"/><path fill="#321B41" d="M12.306 10.14c.05.07.13.1.22.1.06 0 .11-.01.16-.06l.017-.01c.103-.065.67-.42 1.453-.33.15.02.29-.09.3-.24a.27.27 0 0 0-.24-.3 2.724 2.724 0 0 0-1.854.446l-.006.004c-.12.1-.14.27-.05.39ZM19.216 10.18c.05.04.11.06.17.06.08 0 .16-.03.22-.11a.27.27 0 0 0-.05-.38l-.023-.014a2.776 2.776 0 0 0-1.847-.436c-.15.01-.26.15-.24.3.01.15.15.26.3.24.86-.11 1.46.33 1.47.34Z"/><path fill="#fff" d="M12.257 11.96c.16-.61.71-1.06 1.36-1.06.68 0 1.25.49 1.38 1.13.03.14-.09.27-.23.27h-2.23c-.18 0-.32-.17-.28-.34ZM19.767 11.96c-.16-.61-.71-1.06-1.36-1.06-.68 0-1.24.49-1.37 1.13-.03.14.09.27.23.27h2.23c.18 0 .31-.17.27-.34Z"/><path fill="#7D4533" d="M12.937 12.06c0-.49.4-.89.89-.89s.9.4.89.89c0 .09-.01.16-.03.24h-1.72a.986.986 0 0 1-.03-.24ZM19.097 12.06c0-.49-.4-.89-.89-.89-.5 0-.9.4-.89.89 0 .09.01.16.03.24h1.72c.02-.08.03-.16.03-.24Z"/><path fill="#000" d="M13.827 11.55a.512.512 0 0 1 .45.75h-.9a.512.512 0 0 1 .45-.75ZM18.207 11.55a.512.512 0 0 0-.45.75h.9a.512.512 0 0 0-.45-.75Z"/><path fill="#fff" d="M13.677 11.71a.16.16 0 1 1-.32 0 .16.16 0 0 1 .32 0ZM18.087 11.71a.16.16 0 1 1-.32 0 .16.16 0 0 1 .32 0Z"/><path fill="#00A6ED" d="m15.582 12.002-.554 1.741c-.12.355.163.72.554.72h.836c.391 0 .674-.365.554-.72l-.565-1.741c-.13-.386-.695-.386-.825 0Z"/><path fill="#990839" d="M14.495 15.021c-.145-.08-.311.09-.218.22.363.54.996.9 1.723.9.726 0 1.359-.36 1.722-.9.093-.14-.062-.3-.218-.22-.436.22-2.573.22-3.009 0Z"/><path fill="#F92F60" d="M9.784 6.8c-.267-1.736 1.058-3.3 2.797-3.3h6.83c1.74 0 3.064 1.564 2.798 3.3l-.406 2.623a.977.977 0 0 1-.78.827l.01-.171v-.303a3.485 3.485 0 0 0-.05-.464 1.453 1.453 0 0 0-1.413-1.1h-7.156A1.47 1.47 0 0 0 11 9.312c-.02.151-.04.302-.04.464v.303l.01.171a1.007 1.007 0 0 1-.78-.827l-.406-2.624Z"/><path fill="#CA0B4A" d="M17.544 3.944a.26.26 0 0 0-.317.1l-.003.005c-.053.076-.75 1.065-2.784.773l-.79-.121-.039-.007c-1.134-.19-2.295-.384-3.273-.094a2.784 2.784 0 0 0-.415.777c.924-.603 2.201-.396 3.626-.165l.021.003.352.058c.15.025.3.05.449.073 1.225.182 2.036-.06 2.56-.353-.475 1.05-1.434 1.635-3.766 1.635-.9 0-2.155.171-3.025.999l-.197.201.118.747c.228-.454.969-1.423 3.104-1.423 1.512 0 2.55-.232 3.271-.746.653-.454 1.048-1.12 1.276-2.15.01-.14-.05-.262-.168-.312ZM22.01 8.131a4.252 4.252 0 0 0-3.28-1.544.264.264 0 0 0-.258.263c0 .141.119.262.257.262 1.295 0 2.481.676 3.173 1.756l.109-.737ZM19.135 5.165a.264.264 0 0 1-.257-.263c0-.15.108-.262.267-.262a4.89 4.89 0 0 1 3.034 1.07c.05.252.08.504.07.766a4.37 4.37 0 0 0-3.114-1.311Z"/><path fill="#FCD53F" d="M16 7.5a1.5 1.5 0 1 0 0-3 1.5 1.5 0 0 0 0 3Z"/><path fill="#F8312F" d="M16 6.75a.75.75 0 1 0 0-1.5.75.75 0 0 0 0 1.5Z"/></svg>
